icons/status.svg

<svg xmlns="http://www.w3.org/2000/svg" width="24" height="24"><path d="M23.5 6H21V4.5a.5.5 0 0 0-.5-.5H8V2.5a.5.5 0 0 0-.5-.5h-7a.5.5 0 0 0-.5.5V19c0 1.654 1.346 3 3 3h17.5c1.93 0 3.5-1.57 3.5-3.5v-12a.5.5 0 0 0-.5-.5zM5 6.5V19c0 1.103-.897 2-2 2s-2-.897-2-2V3h6v1.5a.5.5 0 0 0 .5.5H20v1H5.5a.5.5 0 0 0-.5.5zm18 12c0 1.378-1.122 2.5-2.5 2.5H5.234c.476-.53.766-1.232.766-2V7h17v11.5z"/></svg>

<?xml version="1.0" encoding="utf-8"?>
<!-- Generator: Adobe Illustrator 16.0.0, SVG Export Plug-In . SVG Version: 6.00 Build 0)  -->
<!DOCTYPE svg PUBLIC "-//W3C//DTD SVG 1.1//EN" "http://www.w3.org/Graphics/SVG/1.1/DTD/svg11.dtd">
<svg version="1.1" id="Outline_Icons" xmlns="http://www.w3.org/2000/svg" xmlns:xlink="http://www.w3.org/1999/xlink" x="0px"
	 y="0px" width="24px" height="24px" viewBox="0 0 24 24" enable-background="new 0 0 24 24" xml:space="preserve">
<path d="M23.5,6H21V4.5C21,4.224,20.776,4,20.5,4H8V2.5C8,2.224,7.776,2,7.5,2h-7C0.224,2,0,2.224,0,2.5V19c0,1.654,1.346,3,3,3
	h17.5c1.93,0,3.5-1.57,3.5-3.5v-12C24,6.224,23.776,6,23.5,6z M5,6.5V19c0,1.103-0.897,2-2,2s-2-0.897-2-2V3h6v1.5
	C7,4.776,7.224,5,7.5,5H20v1H5.5C5.224,6,5,6.224,5,6.5z M23,18.5c0,1.378-1.122,2.5-2.5,2.5H5.234C5.71,20.469,6,19.768,6,19V7h17
	V18.5z"/>
</svg>
